X: 31
T: MEDLEY: Road to Lisdoonvarna Set
T: Road to Lisdoonvarna [Slide]
C: C: Trad.; S: Various
C: Set Leaders: Olya, André
Z: Anton Zille ed., Oleg Naumov arr.; birlibirdie / fidicen / NfldWhistler at The Session
N: https://thesession.org/members/26966/sets/92387
R: Slide
M: 12/8
L: 1/8
Q: 3/8=130
K: Edor
"Em"E2B B2A B2c d2A|"D"F2A ABA D2E FED|
"Em"E2B B2A "G"B2c d3|"A"cdc "Bm"B2A "Em"B2E E3:||
"Em"e2f gfe d2B Bcd|"A"c2A ABc "Bm"d2B B3|
"Em"e2f gfe "G"d2B Bcd|"A"cdc "Bm"B2A "Em"B2E E3:||
T: Swallowtail [Jig]
R: Jig
M: 6/8
K: Edor
|:"Em"GEE BEE|"Em"GEE BAG|"D"FDD ADD|"D"dcd "Bm"AGF|
"Em"GEE BEE|"Em"GEG B2c|"D"dcd "Bm"AGF|"Em"GEE E3:||
|:"Em"Bcd e2f|"Em"e2f edB|"Em"Bcd e2f|"Em"edB "D"d3|
"Em"Bcd e2f|"A"e2f edc|"D"dcd "Bm"AGF|"Em"GEE E3:||
T: Tripping up the Stairs [Jig]
M: 6/8
K: Dmaj
|:"D"FAA "G"GBB|"D"FAd fed|"A"cBc ABc|"D"dfe dAG|
"D"FAA "G"GBB|"D"FAd fed|"A"cBc ABc|1 "D"dfe d2A:|2 "D"dfe d2c||
|:"Bm"dBB fBB|"Bm"fgf fed|"A"cAA eAA|"A"efe edc|
"Bm"dBB fBB|"Bm"fgf fed|"A"cBc ABc|1 "D"dfe d2c:|2 "D"dfe d2A||

